Obsidian/actions/24s/stroke-join-bevel.svg

<svg height="24" viewBox="0 0 24 24" width="24" xmlns="http://www.w3.org/2000/svg"><path d="m6.2421875 2-4.2421875 4.2421875.0078125.0078125h-.0078125v7.75h4v-5.34375l2.65625-2.65625h5.34375v-4zm.4140625 1h6.34375v2h-4.7578125l-3.2421875 3.2421875v4.7578125h-2v-6.34375zm1.34375 5v6h4v-2h2v-4zm1 1h4v2h-2v2h-2z" fill="#bebebe" transform="translate(4 4)"/></svg>

<svg xmlns="http://www.w3.org/2000/svg" width="24" height="24" viewBox="0 0 24 24">
 <defs>
  <style id="current-color-scheme" type="text/css">
   .ColorScheme-Text { color:#bebebe; } .ColorScheme-Highlight { color:#4285f4; }
  </style>
 </defs>
 <path style="fill:currentColor" class="ColorScheme-Text" d="M 6.2421875 2 L 2 6.2421875 L 2.0078125 6.25 L 2 6.25 L 2 14 L 6 14 L 6 8.65625 L 8.65625 6 L 14 6 L 14 2 L 6.2421875 2 z M 6.65625 3 L 13 3 L 13 5 L 8.2421875 5 L 5 8.2421875 L 5 13 L 3 13 L 3 6.65625 L 6.65625 3 z M 8 8 L 8 14 L 12 14 L 12 12 L 14 12 L 14 8 L 8 8 z M 9 9 L 13 9 L 13 11 L 11 11 L 11 13 L 9 13 L 9 9 z" transform="translate(4 4)"/>
</svg>
